X: 22
T: This is not my ain House
R: strathspey
B: Bland & Weller, eds. "24 Favorite Country Dances, Hornpipes and Reels", 1803, London p.11 #22
S: http://imslp.org/wiki/24_Favorite_Country_Dances,_Hornpipes_and_Reels_(Various)
M: C
L: 1/16
Z: 2012 John Chambers <jc:trillian.mit.edu>
K: D
G2 |\
FA3 D2a2 (g2f2e2d2) | (Bcd2) A2F2 B2E2E3G |\
(FA3) D2a2 {g}f4 e2d2 | (Bc)d2 A3F A2D2D2 :|
G2 |\
(FGA2) D2A2 (FGA2) B3A | (FGA2) D2f2 e2E2E2G2 |\
(FGA2) D2A2 (FGA2) TB3A | (Bcd2) (cde2) d2D2D2 ||
G2 |\
(FGA2) D3A (FGA2) TB3A | (FGA2) D2f2 e2 E4 fg |\
af3ge3 fd3ec3 | d3BA2F2 A2D2D2 |]
%%begintext align
%% Cast off 2 Couple .|
%% up again :|
%% down the middle up again :|.
%% Allemand :|:
%% Turn Corners .:|:.
%% lead outsides ::|::
%%endtext

%%sep 1 1 500
%%sep 1 1 500
